X: 26
T: Congress, The
C: Joe Mills
Z: Erik-Fiddler
S: https://thesession.org/tunes/208#setting48768
R: reel
M: 4/4
L: 1/8
K: Ador
|:eAAB ~c2 BA|GE ~E/E/E DGBd|eAAB cdeg|a/g/f {a}ge degd|
e/f/e Ad cdcA|GE ~E/E/E DG B/^c/d|[e2A2] af {a}gedB|GBdB {d}BAAB:|
|:~c3 d eg ~g/g/g|eaaf {a}gedB|{d}cBcd eg ~g/g/g|eage d^cdg|
eAAB cBcd|[e2A2] af {a}gedB|c/d/c BA GE ~E/E/E|DGBG A3 B:|

